X:1
T:Title
%%score 1 2 3 4
L:1/8
M:3/2
K:C
V:1 treble nm="Part_1"
V:2 treble nm="Part_2"
V:3 treble-8 nm="Part_3"
V:4 treble-8 nm="Part_4"
V:1
 z4 d4 c2 B2- | B2 A2 A2 G2 AcBA | c6 B2 A2 G2 | F4 z4 c4 | A2 B4 A4 G2 | A2 B2 c2 d2 A4 | %6
 G8 A2 G2 | F4 E8 | F4 G6 A2 | A6 G2 A2 F2 | A4 z4 z4 | D12 | A12 | G12 | d12 | cd e4 d3 ccB | %16
 d6 c2 B2 A2 | A4 z4 z4 | d2 e2 d2 c2 B2 A2 | c2 d2 e4 f2 e2 | d4 z4 A4 | d8 d4 | c4 B6 A2 | %23
 G6 F4 E2 | G2 E4 D2 F4 | z4 c2 A2 c2 B2 | c4 A4 F4 | D4 F2 G4 F2 | !fermata!G12 | z4 z4 c2 d2 | %30
 e12 | d6 c2 d2 B2 | d6 c2 B2 A2 | G2 A2 B2 A2 F2 E2 | FE F2 G2 AG A2 B2 | c4 z4 z4 | G8 F2 E2 | %37
 D6 G4 A2 | G2 B4 d2 c4 | d6 c2 B2 A2 | A4 z4 B2 c2 | d2 e2 dcdB d4 | A12 | G12 | F12 | G8 A4 | %46
 G12 | A12 |] %48
V:2
 A6 B4 c2 | d6 e2 c2 d2 | e8 d2 B2 | A8 z4 | c4 B2 d4 c2 | d4 z4 d4 | c4 B2 d6 | %7
 A2 B2 c2 B2 A2 G2 | d4 B4 A4 | d4 c6 B2 | d6 c2 B2 A2 | B12 | c8 d4 | e4 d2 c4 B2 | A12 | G12 | %16
 A4 z4 z4 | d6 c2 B2 A2 | A6 G4 F2 | G4 z4 (3c2 B2 c2 | A4 d8 | B4 A8 | G4 D8 | B4 c2 d2 c2 A2 | %24
 B2 c2 B2 A2 c4 | G6 F4 E2 | F4 z4 (3A2 G2 A2 | B4 c4 d2 A2 | !fermata!B12 | z4 c2 d2 e4 | B8 B4 | %31
 A4 G8 | A8 d4 | c4 B8 | c4 z4 z4 | A2 B2 c2 d2 c2 B2 | c2 d2 c2 B2 A2 G2 | F4 E4 D4 | E6 F2 G4 | %39
 F4 A4 B2 c2 | d6 c2 d2 B2 | A12 | d12 | c12 | B12 | c8 e2 d2 | c12 | d12 |] %48
V:3
 d6 c3 B c2 | d4 d4 f4 | g12 | f2 d4 e2 c4 | B2 A2 B2 d2 c B2 d | e2 f4 e2 d4 | c8 d4 | z4 G8 | %8
 d4 B4 A4 | d6 c2 d2 B2 | d4 z4 f4 | g12 | c8 d4 | B12 | d12 | c2 d2 e4 e2 c2 | f8 f2 f2 | %17
 d6 c2 B4 | A2 d2 c2 B2 d4 | e8 e4 | d12 | z12 | d12 | B4 c8 | d8 z4 | d4 f6 e2 | f6 d2 c4 | %27
 B2 c4 B4 A2 | !fermata!B12 | e4 c6 B2 | B4 z4 e4 | d4 c6 e2 | f8 d4 | e6 f2 e2 d2 | f6 e2 d4 | %35
 c2 d4 c2 B2 A2 | e8 z4 | c4 B6 A2 | GA B4 A3 GGF | A4 d2 c2 d2 B2 | A2 d4 d2 c2 B2 | d12 | d8 f4 | %43
 e8 c2 c2 | d6 c2 B4 | c8 e2 d2 | c12 | d12 |] %48
V:4
 D12 | D4 F2 E2 F2 D2 | C8 D2 E2 | F12 | F4 G2 D2 E4 | D12 | E8 D4 | D4 C8 | D4 E4 F4 | F4 E8 | %10
 D12 | G12 | F12 | E12 | F12 | E12 | D12 | D8 E4 | F4 E4 D4 | C8 C4 | D8 D4 | D12 | G8 G4 | G4 A8 | %24
 G8 F4 | G4 A6 G2 | F12 | G4 A2 E2 F4 | !fermata!E12 | E12 | G8 E4 | F4 E8 | D12 | G12 | F12 | %35
 F4 E4 D4 | C8 D2 E2 | F4 G4 F4 | E4 G2 D2 E4 | D8 D4 | D12 | z12 | D12 | E12 | D12 | C12 | E12 | %47
 D12 |] %48

